build/img/icon-category/icon-category-11.svg

<svg width="28" height="27" viewBox="0 0 28 27" fill="none" xmlns="http://www.w3.org/2000/svg">
<path d="M17.422 12.2281C17.422 17.0786 9.43855 25 9.43855 25C9.43855 25 1.45508 17.0786 1.45508 12.2281C1.45508 7.25402 5.58025 4.36841 9.43855 4.36841C13.2968 4.36841 17.422 7.25402 17.422 12.2281Z" stroke="#2C8ECC" stroke-width="2" stroke-miterlimit="10" stroke-linecap="square"/>
<path d="M14.4316 2.12281C15.6999 1.38737 17.1494 1 18.5625 1C22.4208 1 26.546 3.88561 26.546 8.85965C26.546 13.7102 18.5625 21.6316 18.5625 21.6316" stroke="#2C8ECC" stroke-width="2" stroke-miterlimit="10" stroke-linecap="square"/>
<path d="M9.43871 14.4737C10.6985 14.4737 11.7197 13.4683 11.7197 12.2281C11.7197 10.9879 10.6985 9.98251 9.43871 9.98251C8.17895 9.98251 7.15771 10.9879 7.15771 12.2281C7.15771 13.4683 8.17895 14.4737 9.43871 14.4737Z" stroke="#2C8ECC" stroke-width="2" stroke-miterlimit="10" stroke-linecap="square"/>
</svg>

<svg width="28" height="27" fill="none" xmlns="http://www.w3.org/2000/svg"><path d="M17.422 12.228C17.422 17.078 9.439 25 9.439 25s-7.984-7.921-7.984-12.772c0-4.974 4.125-7.86 7.984-7.86 3.858 0 7.983 2.886 7.983 7.86z" stroke="#2C8ECC" stroke-width="2" stroke-miterlimit="10" stroke-linecap="square"/><path d="M14.432 2.123A8.31 8.31 0 0118.562 1c3.859 0 7.984 2.886 7.984 7.86 0 4.85-7.983 12.772-7.983 12.772m-9.124-7.158c1.26 0 2.28-1.006 2.28-2.246S10.7 9.983 9.44 9.983s-2.281 1.005-2.281 2.245c0 1.24 1.021 2.246 2.28 2.246z" stroke="#2C8ECC" stroke-width="2" stroke-miterlimit="10" stroke-linecap="square"/></svg>
